icons/1_Primary/Cozy Cloud.svg

<svg width="1024" height="1024" fill="none" xmlns="http://www.w3.org/2000/svg"><g clip-path="url(#a)"><path d="M512 1024c282.77 0 512-229.23 512-512S794.77 0 512 0 0 229.23 0 512s229.23 512 512 512Z" fill="#9ABEFF"/><path d="M632.43 688H391.57C316.8 688 256 626.84 256 551.6a136.114 136.114 0 0 1 38.67-95.41 134.463 134.463 0 0 1 80.76-40 135.878 135.878 0 0 1 39.8-81.28 135 135 0 0 1 189.61 0 136 136 0 0 1 39.76 80.87c69.07 6.17 123.4 64.74 123.4 135.83C768 626.84 707.16 688 632.42 688h.01Zm.46-25.58h1c59.82 0 108.47-49.24 108.47-109.77 0-60.53-48.62-109.72-108.43-109.72h-1.09a14.452 14.452 0 0 1-14.38-14.21c-1.35-59.12-50-107.18-108.43-107.18-58.43 0-107.1 48.09-108.44 107.2A14.482 14.482 0 0 1 387.52 443c-58.4 1.36-105.92 50.58-105.92 109.74 0 60.53 48.66 109.77 108.47 109.77h242.82v-.09Zm-53.32-119a5.076 5.076 0 0 1 2.089 5.691 5.082 5.082 0 0 1-4.849 3.639 5.004 5.004 0 0 1-2.75-.82 27.857 27.857 0 0 1-5.68-4.94 89.118 89.118 0 0 1-119.64.1 27.588 27.588 0 0 1-5.59 4.84 5.001 5.001 0 0 1-7-1.47 5.088 5.088 0 0 1 1.46-7c8.57-5.61 9-16 9-16.37a5.04 5.04 0 0 1 7.059-4.506 5.037 5.037 0 0 1 3.011 4.716 33.595 33.595 0 0 1-2.51 11.08 78.999 78.999 0 0 0 108.83-.22 34.316 34.316 0 0 1-2.46-10.91 5.037 5.037 0 0 1 8.528-3.722 5.034 5.034 0 0 1 1.542 3.532c-.02.45.39 10.76 8.96 16.37v-.01Z" fill="#fff"/></g><defs><clipPath id="a"><path fill="#fff" d="M0 0h1024v1024H0z"/></clipPath></defs></svg>

<svg width="1024" height="1024" viewBox="0 0 1024 1024" fill="none" xmlns="http://www.w3.org/2000/svg">
<g clip-path="url(#clip0_2_1893)">
<path d="M512 1024C794.77 1024 1024 794.77 1024 512C1024 229.23 794.77 0 512 0C229.23 0 0 229.23 0 512C0 794.77 229.23 1024 512 1024Z" fill="#9ABEFF"/>
<path d="M632.43 688H391.57C316.8 688 256 626.84 256 551.6C255.902 515.961 269.786 481.704 294.67 456.19C316.187 433.964 344.71 419.836 375.43 416.19C379.019 385.345 393.065 356.66 415.23 334.91C440.492 309.991 474.55 296.02 510.035 296.02C545.52 296.02 579.578 309.991 604.84 334.91C626.899 356.565 640.922 385.088 644.6 415.78C713.67 421.95 768 480.52 768 551.61C768 626.84 707.16 688 632.42 688H632.43ZM632.89 662.42H633.89C693.71 662.42 742.36 613.18 742.36 552.65C742.36 492.12 693.74 442.93 633.93 442.93H632.84C629.061 442.912 625.439 441.415 622.751 438.759C620.063 436.102 618.523 432.499 618.46 428.72C617.11 369.6 568.46 321.54 510.03 321.54C451.6 321.54 402.93 369.63 401.59 428.74C401.535 432.472 400.04 436.039 397.419 438.696C394.797 441.353 391.251 442.895 387.52 443C329.12 444.36 281.6 493.58 281.6 552.74C281.6 613.27 330.26 662.51 390.07 662.51H632.89V662.42ZM579.57 543.42C580.484 544.018 581.18 544.895 581.556 545.92C581.933 546.945 581.968 548.064 581.659 549.111C581.349 550.158 580.71 551.078 579.837 551.733C578.963 552.389 577.902 552.745 576.81 552.75C575.833 552.751 574.877 552.466 574.06 551.93C571.952 550.548 570.041 548.886 568.38 546.99C552.003 561.845 530.689 570.082 508.579 570.1C486.469 570.118 465.142 561.917 448.74 547.09C447.102 548.947 445.222 550.575 443.15 551.93C442.596 552.301 441.974 552.557 441.32 552.684C440.666 552.811 439.993 552.806 439.341 552.669C438.688 552.532 438.07 552.266 437.522 551.887C436.974 551.507 436.508 551.022 436.15 550.46C435.424 549.336 435.171 547.971 435.444 546.661C435.717 545.351 436.495 544.201 437.61 543.46C446.18 537.85 446.61 527.46 446.61 527.09C446.624 526.429 446.768 525.777 447.033 525.171C447.299 524.566 447.682 524.018 448.159 523.561C448.636 523.103 449.199 522.744 449.815 522.503C450.431 522.263 451.089 522.146 451.75 522.16C452.411 522.174 453.063 522.318 453.669 522.584C454.274 522.849 454.822 523.232 455.28 523.709C455.737 524.186 456.097 524.749 456.337 525.365C456.577 525.981 456.694 526.639 456.68 527.3C456.478 531.109 455.63 534.856 454.17 538.38C468.881 552.301 488.376 560.04 508.629 559.999C528.882 559.958 548.346 552.14 563 538.16C561.589 534.683 560.758 530.997 560.54 527.25C560.528 526.589 560.645 525.932 560.887 525.316C561.128 524.7 561.489 524.138 561.948 523.662C562.874 522.7 564.145 522.145 565.48 522.12C566.815 522.095 568.106 522.601 569.068 523.528C570.03 524.454 570.585 525.725 570.61 527.06C570.59 527.51 571 537.82 579.57 543.43V543.42Z" fill="white"/>
</g>
<defs>
<clipPath id="clip0_2_1893">
<rect width="1024" height="1024" fill="white"/>
</clipPath>
</defs>
</svg>
